build/images/icons/home.svg

<svg width="14" height="14" viewBox="0 0 14 14" fill="none" xmlns="http://www.w3.org/2000/svg">
<g clip-path="url(#clip0_47_1858)">
<path d="M13.6216 6.08932C13.6212 6.089 13.6209 6.08868 13.6206 6.08836L7.90971 0.377686C7.66629 0.134155 7.34265 0 6.9984 0C6.65414 0 6.3305 0.134048 6.08697 0.377579L0.379073 6.08537C0.377151 6.0873 0.375228 6.08932 0.373305 6.09125C-0.126573 6.59401 -0.125718 7.40973 0.375762 7.91121C0.604873 8.14043 0.90747 8.27319 1.231 8.28708C1.24414 8.28836 1.25738 8.289 1.27074 8.289H1.49835V12.4917C1.49835 13.3233 2.175 14 3.00685 14H5.24113C5.46757 14 5.65129 13.8164 5.65129 13.5898V10.2949C5.65129 9.91542 5.95997 9.60674 6.33948 9.60674H7.65732C8.03682 9.60674 8.3455 9.91542 8.3455 10.2949V13.5898C8.3455 13.8164 8.52911 14 8.75566 14H10.9899C11.8218 14 12.4984 13.3233 12.4984 12.4917V8.289H12.7095C13.0536 8.289 13.3773 8.15495 13.6209 7.91142C14.1229 7.40909 14.1232 6.59198 13.6216 6.08932Z" fill="#52BFFF"/>
</g>
<defs>
<clipPath id="clip0_47_1858">
<rect width="14" height="14" fill="white"/>
</clipPath>
</defs>
</svg>

<svg width="14" height="14" fill="none" xmlns="http://www.w3.org/2000/svg"><g clip-path="url(#a)"><path d="m13.622 6.09-.001-.002L7.91.378A1.28 1.28 0 0 0 6.998 0a1.28 1.28 0 0 0-.911.378L.379 6.085l-.006.006a1.29 1.29 0 0 0 .898 2.198h.227v4.203A1.51 1.51 0 0 0 3.007 14H5.24a.41.41 0 0 0 .41-.41v-3.295c0-.38.309-.688.688-.688h1.318c.38 0 .688.308.688.688v3.295c0 .226.184.41.41.41h2.235a1.51 1.51 0 0 0 1.508-1.508V8.289h.212a1.29 1.29 0 0 0 .912-2.2Z" fill="#52BFFF"/></g><defs><clipPath id="a"><path fill="#fff" d="M0 0h14v14H0z"/></clipPath></defs></svg>
